X:286
T: So trinken wir alle
N: A0330
O: Europa, Mitteleuropa, Deutschland
N: H. Finck 1536 No. 45.
R: Romanze, Ballade, Lied
M: 4/2
L: 1/4
K: F
F2 | A2A2B4 | c4A4 |
B2B2c2BA | G4F4 |
B2B2B2G2 | A2A2A2
F2 | G2F2B2A2 | G4F4 |
B2B2B2G2 | A2A2A2
F2 | G2F2B2A2 | G4F2
F2 | F4C2F2 | F4C2F2 | F4C2

@@@ Tune index: 286
